X: 35597
T: Sac Dy Check
R: hornpipe
M: 4/4
K: Eminor
(3EEE A>B c>B A>c|B>A G>B A>G E>D|(3EEE A>B c>B A>c|
[1 B>A G>B .A2 A>G:|2 B>A G>E .A2 z2:|B>(c c)>B c2 B>c|
(3ddd d>d c>B A>G|A>B c>B A>E (3EDE|c>A B>G A2 z2:|

